; generated by PrusaSlicer 2.5.0+win64 on 2022-10-06 at 08:39:51 UTC


;
;
; 

; external perimeters extrusion width = 0.45mm
; perimeters extrusion width = 0.45mm
; infill extrusion width = 0.45mm
; solid infill extrusion width = 0.45mm
; top infill extrusion width = 0.40mm
; first layer extrusion width = 0.42mm

M73 P0 R24
M73 Q0 S24
M201 X1000 Y1000 Z200 E5000 ; sets maximum accelerations, mm/sec^2
M203 X200 Y200 Z12 E120 ; sets maximum feedrates, mm / sec
M204 P1250 R1250 T1250 ; sets acceleration (P, T) and retract acceleration (R), mm/sec^2
M205 X8.00 Y8.00 Z0.40 E4.50 ; sets the jerk limits, mm/sec
M205 S0 T0 ; sets the minimum extruding and travel feed rate, mm/sec
M107
;TYPE:Custom
M862.3 P "MK3S" ; printer model check
M862.1 P0.4 ; nozzle diameter check
M115 U3.11.0 ; tell printer latest fw version
G90 ; use absolute coordinates
M83 ; extruder relative mode
M104 S215 ; set extruder temp
M140 S60 ; set bed temp
M190 S60 ; wait for bed temp
M109 S215 ; wait for extruder temp
G28 W ; home all without mesh bed level
G80 ; mesh bed leveling

G1 Z0.2 F720
G1 Y-3 F1000 ; go outside print area
G92 E0
G1 X60 E9 F1000 ; intro line
G1 X100 E12.5 F1000 ; intro line

G92 E0
M221 S95

; Don't change E values below. Excessive value can damage the printer.
M907 E430 ; set extruder motor current
G21 ; set units to millimeters
G90 ; use absolute coordinates
M83 ; use relative distances for extrusion
M900 K0.05 ; Filament gcode LA 1.5
M900 K30 ; Filament gcode LA 1.0
M107
;LAYER_CHANGE
;Z:0.2
;HEIGHT:0.2
;BEFORE_LAYER_CHANGE
G92 E0.0
;0.2


G1 E-.8 F2100
M73 P0 R23
G1 Z.4 F720
;AFTER_LAYER_CHANGE
;0.2
G1 X112.639 Y89.583 F10800
G1 Z.2 F720
M73 Q0 S23
G1 E.8 F2100
M204 S800
;TYPE:Skirt/Brim
;WIDTH:0.42
G1 F1200
G1 X113.705 Y88.569 E.04612
G1 X115 Y88.246 E.04186
G1 X135 Y88.246 E.62709
G1 X136.417 Y88.639 E.04612
G1 X137.431 Y89.705 E.04612
G1 X137.754 Y91 E.04186
G1 X137.754 Y94 E.09406
G1 X137.678 Y94.643 E.02029
G1 X131.678 Y119.643 E.80612
G1 X130.965 Y120.929 E.04612
G1 X129 Y121.754 E.06683
G1 X121 Y121.754 E.25083
G1 X119.583 Y121.361 E.04612
G1 X118.322 Y119.643 E.06683
G1 X112.322 Y94.643 E.80612
G1 X112.246 Y94 E.02029
G1 X112.246 Y91 E.09406
G1 X112.623 Y89.64 E.04424
M204 S1000
G1 X112.997 Y89.752 F10800
M204 S800
G1 F1200
G1 X113.015 Y89.693 E.00195
G1 X114.06 Y88.817 E.04278
G1 X115 Y88.623 E.03008
G1 X135 Y88.623 E.62709
G1 X136.307 Y89.015 E.04278
G1 X137.183 Y90.06 E.04278
G1 X137.377 Y91 E.03008
G1 X137.377 Y94 E.09406
G1 X137.311 Y94.555 E.01751
G1 X131.311 Y119.555 E.80612
G1 X130.626 Y120.734 E.04278
M73 P1 R23
M73 Q1 S23
G1 X129 Y121.377 E.05481
G1 X121 Y121.377 E.25083
G1 X119.693 Y120.985 E.04278
G1 X118.689 Y119.555 E.05481
G1 X112.689 Y94.555 E.80612
G1 X112.623 Y94 E.01751
G1 X112.623 Y91 E.09406
G1 X112.979 Y89.81 E.03895
M204 S1000
; printing object adjusting pad v1.stl id:0 copy 0
;WIPE_START
G1 F8640
G1 X113.015 Y89.693 E-.0282
G1 X114.06 Y88.817 E-.31505
G1 X115 Y88.623 E-.22155
G1 X115.845 Y88.623 E-.1952
;WIPE_END
G1 E-.04 F2100
G1 Z.6 F720
G1 X115.787 Y91.787 F10800
G1 Z.2 F720
G1 E.8 F2100
M204 S800
;TYPE:Perimeter
;WIDTH:0.419999
G1 F1200
G1 X134.213 Y91.787 E.57773
G1 X134.213 Y92.5 E.02235
G1 X134.213 Y93.213 E.02235
G1 X131.993 Y93.213 E.06959
G1 X131.037 Y93.341 E.03025
G1 X130.18 Y93.683 E.02894
G1 X129.446 Y94.208 E.02828
G1 X128.846 Y94.91 E.02897
G1 X128.441 Y95.716 E.02826
G1 X128.252 Y96.482 E.02474
G1 X128.213 Y96.994 E.01612
G1 X128.213 Y97.958 E.03023
;WIDTH:0.464173
G1 X128.191 Y98.081 E.00435
;WIDTH:0.508346
G1 X128.169 Y98.203 E.0048
;WIDTH:0.55252
G1 X128.147 Y98.325 E.00526
;WIDTH:0.596693
G1 X128.125 Y98.447 E.00571
G1 X128.138 Y98.991 E.02506
;WIDTH:0.569381
G1 X128.138 Y114.009 E.65743
;WIDTH:0.589395
G1 X128.128 Y114.484 E.02159
G1 X128.149 Y114.624 E.0064
;WIDTH:0.547046
G1 X128.171 Y114.763 E.00591
;WIDTH:0.504697
G1 X128.192 Y114.902 E.00541
;WIDTH:0.462348
G1 X128.213 Y115.042 E.00492
;WIDTH:0.419999
G1 X128.213 Y118.213 E.09944
G1 X121.787 Y118.213 E.20148
G1 X121.787 Y115.042 E.09944
;WIDTH:0.466679
G1 X121.81 Y114.879 E.00579
;WIDTH:0.513358
G1 X121.834 Y114.716 E.00643
;WIDTH:0.560037
G1 X121.857 Y114.553 E.00707
;WIDTH:0.569381
G1 X121.862 Y98.991 E.68125
;WIDTH:0.584018
G1 X121.869 Y98.6 E.01761
G1 X121.849 Y98.439 E.00727
;WIDTH:0.543014
G1 X121.828 Y98.279 E.00672
;WIDTH:0.502009
G1 X121.808 Y98.119 E.00617
;WIDTH:0.461004
G1 X121.787 Y97.958 E.00562
;WIDTH:0.419999
G1 X121.783 Y96.927 E.03235
G1 X121.692 Y96.171 E.02386
G1 X121.575 Y95.815 E.01175
G1 X121.317 Y95.179 E.0215
G1 X120.792 Y94.447 E.02826
G1 X120.09 Y93.846 E.02898
G1 X119.284 Y93.441 E.02829
G1 X118.519 Y93.252 E.02468
G1 X118.007 Y93.213 E.01612
G1 X115.787 Y93.213 E.06959
G1 X115.787 Y91.847 E.04283
M204 S1000
G1 X115.41 Y91.41 F10800
M204 S800
;TYPE:External perimeter
G1 F1200
G1 X134.59 Y91.41 E.60137
G1 X134.59 Y93.59 E.06835
G1 X131.971 Y93.591 E.08213
G1 X131.17 Y93.694 E.0253
G1 X130.394 Y93.993 E.0261
G1 X129.728 Y94.458 E.02545
G1 X129.179 Y95.085 E.02613
G1 X128.807 Y95.806 E.02543
G1 X128.618 Y96.572 E.02474
G1 X128.59 Y96.994 E.01327
G1 X128.59 Y118.59 E.67711
G1 X121.41 Y118.59 E.22512
G1 X121.409 Y96.972 E.67782
G1 X121.317 Y96.216 E.02386
G1 X121.007 Y95.394 E.02758
G1 X120.542 Y94.729 E.02543
G1 X119.915 Y94.18 E.02614
G1 X119.193 Y93.807 E.02546
G1 X118.429 Y93.618 E.02468
G1 X118.007 Y93.59 E.01327
G1 X115.41 Y93.59 E.08142
G1 X115.41 Y91.47 E.06647
M204 S1000
G1 X115.799 Y91.502 F10800
;WIPE_START
G1 F8640
G1 X118.701 Y91.46 E-.76
;WIPE_END
G1 E-.04 F2100
G1 Z.6 F720
G1 X125.198 Y96.477 F10800
G1 Z.2 F720
G1 E.8 F2100
M204 S800
;TYPE:Perimeter
G1 F1200
G1 X125.711 Y96.57 E.01635
G1 X126.306 Y96.831 E.02035
G1 X126.737 Y97.15 E.01682
G1 X127.03 Y97.479 E.01382
G1 X127.252 Y97.834 E.01313
;WIDTH:0.464173
G1 X127.334 Y98.004 E.00661
;WIDTH:0.508346
G1 X127.416 Y98.174 E.00731
;WIDTH:0.55252
G1 X127.498 Y98.345 E.008
;WIDTH:0.596693
G1 X127.579 Y98.515 E.00869
G1 X127.612 Y98.991 E.02197
;WIDTH:0.569381
G1 X127.612 Y114.009 E.65743
G1 X127.562 Y114.481 E.02076
;WIDTH:0.560036
G1 X127.459 Y114.709 E.01077
;WIDTH:0.513357
G1 X127.355 Y114.937 E.0098
;WIDTH:0.466678
G1 X127.252 Y115.166 E.00883
;WIDTH:0.419999
G1 X126.973 Y115.594 E.01605
G1 X126.683 Y115.897 E.01313
G1 X126.348 Y116.149 E.01313
G1 X125.976 Y116.341 E.01313
G1 X125.577 Y116.47 E.01313
G1 X125.163 Y116.531 E.01313
G1 X124.744 Y116.523 E.01313
G1 X124.332 Y116.447 E.01313
G1 X123.939 Y116.304 E.01313
G1 X123.574 Y116.097 E.01313
G1 X123.248 Y115.834 E.01313
G1 X122.97 Y115.521 E.01313
G1 X122.748 Y115.166 E.01313
;WIDTH:0.466679
G1 X122.645 Y114.937 E.00883
;WIDTH:0.513358
G1 X122.541 Y114.709 E.0098
;WIDTH:0.560037
G1 X122.438 Y114.481 E.01077
;WIDTH:0.569381
G1 X122.388 Y114.009 E.02076
G1 X122.388 Y98.991 E.65743
;WIDTH:0.596692
G1 X122.421 Y98.515 E.02197
M73 P2 R23
M73 Q2 S23
G1 X122.502 Y98.345 E.00869
;WIDTH:0.552519
G1 X122.584 Y98.174 E.008
;WIDTH:0.508346
G1 X122.666 Y98.004 E.00731
;WIDTH:0.464173
G1 X122.748 Y97.834 E.00661
;WIDTH:0.419999
G1 X123.028 Y97.406 E.01605
G1 X123.317 Y97.103 E.01313
G1 X123.728 Y96.811 E.01581
G1 X124.165 Y96.61 E.01509
G1 X124.744 Y96.477 E.01862
G1 X125.138 Y96.477 E.01236
M204 S1000
G1 X125.194 Y96.849 F10800
M204 S800
;TYPE:External perimeter
G1 F1200
G1 X125.56 Y96.915 E.01167
G1 X126.154 Y97.176 E.02035
G1 X126.474 Y97.421 E.01264
G1 X126.714 Y97.686 E.01119
G1 X126.907 Y97.986 E.01119
G1 X127.048 Y98.313 E.01119
G1 X127.128 Y98.629 E.01021
G1 X127.16 Y98.991 E.01139
G1 X127.16 Y114.009 E.47089
G1 X127.128 Y114.371 E.01139
G1 X127.038 Y114.716 E.01119
G1 X126.892 Y115.042 E.01119
G1 X126.695 Y115.339 E.01119
G1 X126.452 Y115.6 E.01119
G1 X126.168 Y115.817 E.01119
G1 X125.853 Y115.984 E.01119
G1 X125.515 Y116.098 E.01119
G1 X125.163 Y116.154 E.01119
G1 X124.806 Y116.151 E.01119
G1 X124.455 Y116.09 E.01119
G1 X124.118 Y115.972 E.01119
G1 X123.805 Y115.8 E.01119
G1 X123.526 Y115.579 E.01119
G1 X123.286 Y115.314 E.01119
G1 X123.093 Y115.014 E.01119
G1 X122.952 Y114.687 E.01119
G1 X122.867 Y114.34 E.01119
G1 X122.84 Y114.009 E.01041
G1 X122.84 Y98.991 E.47089
G1 X122.872 Y98.629 E.01139
G1 X122.962 Y98.284 E.01119
G1 X123.108 Y97.958 E.01119
G1 X123.36 Y97.601 E.01371
G1 X123.762 Y97.234 E.01706
G1 X124.147 Y97.016 E.01388
G1 X124.485 Y96.902 E.01119
G1 X124.837 Y96.846 E.01119
G1 X125.134 Y96.848 E.00931
M204 S1000
G1 X125.41 Y96.546 F10800
;WIPE_START
G1 F8640
G1 X125.56 Y96.915 E-.09958
G1 X126.154 Y97.176 E-.14988
G1 X126.474 Y97.421 E-.0931
G1 X126.714 Y97.686 E-.08238
G1 X126.907 Y97.986 E-.08238
G1 X127.048 Y98.313 E-.08238
G1 X127.128 Y98.629 E-.07521
G1 X127.16 Y98.991 E-.08385
G1 X127.16 Y99.04 E-.01124
;WIPE_END
G1 E-.04 F2100
G1 Z.6 F720
G1 X133.326 Y91.9 F10800
G1 Z.2 F720
G1 E.8 F2100
M204 S800
;TYPE:Solid infill
;WIDTH:0.425438
G1 F1200
G1 X133.93 Y92.504 E.02717
G1 X133.93 Y92.93 E.01354
G1 X133.815 Y92.93 E.00366
G1 X132.955 Y92.07 E.0387
G1 X132.414 Y92.07 E.01721
G1 X133.274 Y92.93 E.0387
G1 X132.733 Y92.93 E.01721
G1 X131.873 Y92.07 E.0387
G1 X131.332 Y92.07 E.01721
G1 X132.192 Y92.93 E.0387
G1 X131.988 Y92.93 E.0065
G1 X131.686 Y92.965 E.00966
G1 X130.791 Y92.07 E.04027
G1 X130.25 Y92.07 E.01721
G1 X131.202 Y93.021 E.0428
G1 X131.085 Y93.035 E.00374
G1 X130.783 Y93.144 E.0102
G1 X129.709 Y92.07 E.04832
G1 X129.168 Y92.07 E.01721
G1 X130.386 Y93.288 E.05478
G1 X130.196 Y93.356 E.00642
G1 X130.012 Y93.455 E.00664
G1 X128.627 Y92.07 E.0623
G1 X128.086 Y92.07 E.01721
G1 X129.692 Y93.676 E.07223
G1 X129.373 Y93.898 E.01236
G1 X127.545 Y92.07 E.08221
G1 X127.004 Y92.07 E.01721
G1 X129.103 Y94.169 E.09442
G1 X128.849 Y94.456 E.01219
G1 X126.463 Y92.07 E.10731
G1 X125.922 Y92.07 E.01721
G1 X128.609 Y94.757 E.12087
G1 X128.421 Y95.11 E.01272
G1 X125.381 Y92.07 E.13674
G1 X124.84 Y92.07 E.01721
G1 X128.235 Y95.465 E.1527
G1 X128.168 Y95.643 E.00607
G1 X128.112 Y95.882 E.00782
G1 X124.299 Y92.07 E.1715
G1 X123.758 Y92.07 E.01721
G1 X128.01 Y96.321 E.19124
G1 X127.955 Y96.559 E.00775
G1 X127.941 Y96.794 E.00749
G1 X123.217 Y92.07 E.21249
G1 X122.676 Y92.07 E.01721
G1 X127.93 Y97.324 E.23632
G1 X127.93 Y97.865 E.01721
G1 X122.135 Y92.07 E.26065
G1 X121.595 Y92.07 E.01721
G1 X125.85 Y96.325 E.1914
G1 X125.751 Y96.282 E.00341
G1 X125.297 Y96.197 E.0147
G1 X125.178 Y96.194 E.0038
G1 X121.054 Y92.07 E.1855
G1 X120.513 Y92.07 E.01721
G1 X124.654 Y96.211 E.18629
G1 X124.364 Y96.253 E.00931
G1 X124.206 Y96.304 E.0053
G1 X119.972 Y92.07 E.19045
G1 X119.431 Y92.07 E.01721
G1 X123.813 Y96.452 E.1971
G1 X123.462 Y96.643 E.01268
G1 X118.89 Y92.07 E.20568
G1 X118.349 Y92.07 E.01721
G1 X119.501 Y93.222 E.05184
G1 X120.227 Y93.598 E.02598
G1 X120.386 Y93.708 E.00616
G1 X120.984 Y94.239 E.02544
G1 X121.112 Y94.384 E.00614
G1 X121.553 Y95.024 E.02473
G1 X121.643 Y95.196 E.00617
G1 X121.746 Y95.467 E.00922
G1 X123.152 Y96.873 E.06326
G1 X122.89 Y97.152 E.01217
G1 X121.985 Y96.247 E.04071
G1 X122.059 Y96.862 E.01968
G1 X122.652 Y97.455 E.0267
G1 X122.454 Y97.798 E.0126
G1 X122.069 Y97.413 E.01733
G1 X122.071 Y97.956 E.01727
G1 X122.381 Y98.266 E.01395
M204 S1000
;WIPE_START
G1 F8640
G1 X122.071 Y97.956 E-.10131
G1 X122.069 Y97.413 E-.12537
G1 X122.454 Y97.798 E-.12578
G1 X122.652 Y97.455 E-.09146
G1 X122.059 Y96.862 E-.19384
G1 X121.996 Y96.336 E-.12225
;WIPE_END
G1 E-.04 F2100
G1 Z.6 F720
G1 X118.99 Y93.252 F10800
G1 Z.2 F720
G1 E.8 F2100
M204 S800
G1 F1200
G1 X117.808 Y92.07 E.05316
G1 X117.267 Y92.07 E.01721
G1 X118.137 Y92.94 E.03915
G1 X117.586 Y92.93 E.01753
G1 X116.726 Y92.07 E.0387
G1 X116.185 Y92.07 E.01721
G1 X117.045 Y92.93 E.0387
G1 X116.504 Y92.93 E.01721
G1 X115.9 Y92.326 E.02717
M204 S1000
;WIPE_START
G1 F8640
G1 X116.504 Y92.93 E-.19724
G1 X117.045 Y92.93 E-.12491
G1 X116.185 Y92.07 E-.28092
G1 X116.726 Y92.07 E-.12491
G1 X116.824 Y92.168 E-.03202
;WIPE_END
G1 E-.04 F2100
G1 Z.6 F720
G1 X128.099 Y115.337 F10800
G1 Z.2 F720
G1 E.8 F2100
M204 S800
;WIDTH:0.428595
G1 F1200
G1 X127.666 Y114.904 E.01964
G1 X127.499 Y115.282 E.01327
G1 X127.929 Y115.713 E.01951
G1 X127.93 Y116.258 E.0175
G1 X127.294 Y115.623 E.02883
G1 X127.185 Y115.782 E.0062
G1 X127.049 Y115.923 E.00628
G1 X127.93 Y116.804 E.03996
G1 X127.93 Y117.35 E.0175
G1 X126.769 Y116.189 E.05265
G1 X126.562 Y116.349 E.0084
G1 X126.447 Y116.412 E.0042
G1 X127.93 Y117.895 E.06724
G1 X127.93 Y117.93 E.00112
G1 X127.42 Y117.93 E.01637
G1 X126.084 Y116.595 E.06057
G1 X125.675 Y116.731 E.01382
G1 X126.874 Y117.93 E.05437
G1 X126.329 Y117.93 E.01749
G1 X125.204 Y116.806 E.051
G1 X124.831 Y116.814 E.01196
G1 X124.64 Y116.787 E.00621
G1 X125.783 Y117.93 E.05186
G1 X125.238 Y117.93 E.01749
G1 X123.901 Y116.593 E.06062
G1 X123.439 Y116.349 E.01676
G1 X123.137 Y116.116 E.01224
G1 X122.737 Y115.681 E.01895
G1 X122.491 Y115.285 E.01496
G1 X122.419 Y115.111 E.00604
G1 X122.111 Y114.803 E.01394
G1 X122.071 Y114.898 E.0033
G1 X122.071 Y115.308 E.01315
G1 X124.693 Y117.93 E.1189
G1 X124.147 Y117.93 E.01749
G1 X122.071 Y115.854 E.09418
G1 X122.07 Y116.399 E.01749
G1 X123.602 Y117.93 E.06945
G1 X123.056 Y117.93 E.01749
G1 X122.07 Y116.944 E.04472
G1 X122.07 Y117.489 E.01749
G1 X122.681 Y118.1 E.02769
M204 S1000
; stop printing object adjusting pad v1.stl id:0 copy 0
M106 S84.15
;LAYER_CHANGE
;Z:0.35
;HEIGHT:0.15
;BEFORE_LAYER_CHANGE
G92 E0.0
;0.35


;WIPE_START
G1 F8640
G1 X122.07 Y117.489 E-.19935
G1 X122.07 Y116.944 E-.1259
M73 Q3 S23
G1 X123.056 Y117.93 E-.32199
G1 X123.545 Y117.93 E-.11276
;WIPE_END
G1 E-.04 F2100
G1 Z.6 F720
;AFTER_LAYER_CHANGE
;0.35
M104 S213 ; set temperature
M140 S65 ; set bed temperature
G1 X123.545 Y121.754 F10800
G1 Z.35 F720
M73 P3 R23
G1 E.8 F2100
;TYPE:Skirt/Brim
;WIDTH:0.42
G1 F3000
G1 X121 Y121.754 E.06154
G1 X119.583 Y121.361 E.03557
G1 X118.322 Y119.643 E.05155
G1 X112.322 Y94.643 E.62179
G1 X112.246 Y94 E.01565
G1 X112.246 Y91 E.07255
G1 X112.639 Y89.583 E.03557
G1 X113.705 Y88.569 E.03557
G1 X115 Y88.246 E.03229
G1 X135 Y88.246 E.4837
G1 X136.417 Y88.639 E.03557
G1 X137.431 Y89.705 E.03557
G1 X137.754 Y91 E.03229
G1 X137.754 Y94 E.07255
G1 X137.678 Y94.643 E.01565
G1 X131.678 Y119.643 E.62179
G1 X130.965 Y120.929 E.03557
G1 X129 Y121.754 E.05155
G1 X123.605 Y121.754 E.13049
G1 X123.605 Y121.377 F10800
G1 F3000
G1 X121 Y121.377 E.06299
G1 X119.693 Y120.985 E.033
G1 X118.689 Y119.555 E.04228
G1 X112.689 Y94.555 E.62179
G1 X112.623 Y94 E.01351
G1 X112.623 Y91 E.07255
G1 X113.015 Y89.693 E.033
G1 X114.06 Y88.817 E.033
G1 X115 Y88.623 E.02321
G1 X135 Y88.623 E.4837
G1 X136.307 Y89.015 E.033
G1 X137.183 Y90.06 E.033
G1 X137.377 Y91 E.02321
G1 X137.377 Y94 E.07255
G1 X137.311 Y94.555 E.01351
G1 X131.311 Y119.555 E.62179
G1 X130.626 Y120.734 E.033
G1 X129 Y121.377 E.04228
G1 X123.665 Y121.377 E.12904
; printing object adjusting pad v1.stl id:0 copy 0
;WIPE_START
G1 F8640
G1 X121 Y121.377 E-.61526
G1 X120.4 Y121.197 E-.14474
;WIPE_END
G1 E-.04 F2100
G1 Z.75 F720
G1 X121.643 Y118.357 F10800
G1 Z.35 F720
G1 E.8 F2100
M204 S800
;TYPE:Perimeter
;WIDTH:0.449999
G1 F2700
G1 X121.643 Y97.841 E.53457
G1 X121.638 Y96.925 E.02386
G1 X121.564 Y96.305 E.01627
G1 X121.484 Y95.98 E.00872
G1 X121.186 Y95.241 E.02076
G1 X120.679 Y94.538 E.02259
G1 X120.002 Y93.961 E.02316
G1 X119.225 Y93.573 E.02265
G1 X118.51 Y93.397 E.01916
G1 X118 Y93.357 E.01333
G1 X115.643 Y93.357 E.06143
G1 X115.643 Y91.643 E.04467
G1 X134.357 Y91.643 E.48762
G1 X134.357 Y93.357 E.04467
G1 X131.925 Y93.362 E.06338
G1 X131.063 Y93.484 E.02266
G1 X130.242 Y93.814 E.02308
G1 X129.537 Y94.321 E.02263
G1 X128.961 Y94.998 E.02315
G1 X128.574 Y95.773 E.02257
G1 X128.397 Y96.492 E.01931
G1 X128.357 Y97 E.01325
G1 X128.357 Y118.357 E.55649
G1 X121.703 Y118.357 E.17338
M204 S1000
G1 X121.225 Y118.775 F10800
M204 S800
;TYPE:External perimeter
G1 F1500
G1 X121.225 Y97.841 E.54546
G1 X121.218 Y96.932 E.02368
G1 X121.093 Y96.127 E.02122
G1 X120.842 Y95.478 E.01813
G1 X120.402 Y94.85 E.01998
G1 X119.808 Y94.331 E.02055
G1 X119.124 Y93.979 E.02004
G1 X118.41 Y93.803 E.01916
G1 X118 Y93.775 E.0107
G1 X115.225 Y93.775 E.07232
G1 X115.225 Y91.225 E.06644
G1 X134.775 Y91.225 E.50939
G1 X134.775 Y93.775 E.06644
G1 X131.975 Y93.777 E.07297
