; generated by PrusaSlicer 2.5.0+win64 on 2022-10-06 at 08:48:00 UTC


;
;
; 

; external perimeters extrusion width = 0.45mm
; perimeters extrusion width = 0.45mm
; infill extrusion width = 0.45mm
; solid infill extrusion width = 0.45mm
; top infill extrusion width = 0.40mm
; first layer extrusion width = 0.42mm

M73 P0 R53
M73 Q0 S53
M201 X1000 Y1000 Z200 E5000 ; sets maximum accelerations, mm/sec^2
M203 X200 Y200 Z12 E120 ; sets maximum feedrates, mm / sec
M204 P1250 R1250 T1250 ; sets acceleration (P, T) and retract acceleration (R), mm/sec^2
M205 X8.00 Y8.00 Z0.40 E4.50 ; sets the jerk limits, mm/sec
M205 S0 T0 ; sets the minimum extruding and travel feed rate, mm/sec
M107
;TYPE:Custom
M862.3 P "MK3S" ; printer model check
M862.1 P0.4 ; nozzle diameter check
M115 U3.11.0 ; tell printer latest fw version
G90 ; use absolute coordinates
M83 ; extruder relative mode
M104 S215 ; set extruder temp
M140 S60 ; set bed temp
M190 S60 ; wait for bed temp
M109 S215 ; wait for extruder temp
G28 W ; home all without mesh bed level
G80 ; mesh bed leveling

G1 Z0.2 F720
G1 Y-3 F1000 ; go outside print area
G92 E0
G1 X60 E9 F1000 ; intro line
G1 X100 E12.5 F1000 ; intro line

G92 E0
M221 S95

; Don't change E values below. Excessive value can damage the printer.
M907 E430 ; set extruder motor current
G21 ; set units to millimeters
G90 ; use absolute coordinates
M83 ; use relative distances for extrusion
M900 K0.05 ; Filament gcode LA 1.5
M900 K30 ; Filament gcode LA 1.0
M107
;LAYER_CHANGE
;Z:0.2
;HEIGHT:0.2
;BEFORE_LAYER_CHANGE
G92 E0.0
;0.2


G1 E-.8 F2100
G1 Z.4 F720
;AFTER_LAYER_CHANGE
;0.2
G1 X105.515 Y87.193 F10800
G1 Z.2 F720
G1 E.8 F2100
M204 S800
;TYPE:Skirt/Brim
;WIDTH:0.42
G1 F1200
G1 X106.56 Y86.317 E.04278
G1 X107.5 Y86.123 E.03008
G1 X142.5 Y86.123 E1.0974
G1 X143.807 Y86.515 E.04278
G1 X144.683 Y87.56 E.04278
G1 X144.877 Y88.5 E.03008
G1 X144.877 Y121.5 E1.03469
G1 X144.485 Y122.807 E.04278
G1 X143.44 Y123.683 E.04278
G1 X142.5 Y123.877 E.03008
G1 X107.5 Y123.877 E1.0974
G1 X106.193 Y123.485 E.04278
G1 X105.317 Y122.44 E.04278
G1 X105.123 Y121.5 E.03008
G1 X105.123 Y88.5 E1.03469
G1 X105.497 Y87.25 E.0409
M204 S1000
; printing object BFD1000 pad v1.stl id:0 copy 0
;WIPE_START
G1 F8640
G1 X106.56 Y86.317 E-.32671
G1 X107.5 Y86.123 E-.22155
G1 X108.417 Y86.123 E-.21174
;WIPE_END
G1 E-.04 F2100
G1 Z.6 F720
G1 X108.287 Y89.287 F10800
G1 Z.2 F720
G1 E.8 F2100
M204 S800
;TYPE:Perimeter
;WIDTH:0.419999
G1 F1200
G1 X141.713 Y89.287 E1.04804
G1 X141.713 Y120.713 E.98533
G1 X108.287 Y120.713 E1.04804
G1 X108.287 Y89.347 E.98345
M204 S1000
G1 X107.91 Y88.91 F10800
M204 S800
;TYPE:External perimeter
G1 F1200
G1 X142.09 Y88.91 E1.07169
G1 X142.09 Y121.09 E1.00898
G1 X107.91 Y121.09 E1.07169
G1 X107.91 Y88.97 E1.0071
M204 S1000
G1 X108.297 Y89.01 F10800
;WIPE_START
G1 F8640
G1 X111.201 Y88.964 E-.76
;WIPE_END
G1 E-.04 F2100
G1 Z.6 F720
G1 X124.501 Y94.019 F10800
G1 Z.2 F720
G1 E.8 F2100
M204 S800
;TYPE:Perimeter
G1 F1200
G1 X125.016 Y93.967 E.01623
G1 X125.549 Y94.024 E.0168
G1 X126.021 Y94.179 E.01559
G1 X126.455 Y94.423 E.01559
G1 X126.832 Y94.746 E.01559
G1 X127.139 Y95.137 E.01559
G1 X127.364 Y95.581 E.01559
G1 X127.498 Y96.06 E.01559
G1 X127.537 Y96.489 E.01352
G1 X127.537 Y116.511 E.62777
G1 X127.476 Y117.049 E.01698
G1 X127.321 Y117.521 E.01559
G1 X127.077 Y117.955 E.01559
G1 X126.754 Y118.332 E.01559
G1 X126.363 Y118.639 E.01559
G1 X125.919 Y118.864 E.01559
G1 X125.44 Y118.998 E.01559
G1 X124.945 Y119.035 E.01559
G1 X124.451 Y118.976 E.01559
G1 X123.979 Y118.821 E.01559
G1 X123.545 Y118.577 E.01559
G1 X123.168 Y118.254 E.01559
G1 X122.861 Y117.863 E.01559
G1 X122.636 Y117.419 E.01559
G1 X122.502 Y116.94 E.01559
G1 X122.463 Y116.511 E.01352
G1 X122.463 Y96.489 E.62777
G1 X122.524 Y95.951 E.01698
G1 X122.679 Y95.479 E.01559
G1 X122.923 Y95.045 E.01559
G1 X123.246 Y94.668 E.01559
G1 X123.637 Y94.361 E.01559
G1 X124.081 Y94.136 E.01559
G1 X124.443 Y94.035 E.01179
M204 S1000
G1 X124.597 Y94.378 F10800
M204 S800
;TYPE:External perimeter
G1 F1200
G1 X124.985 Y94.343 E.01221
G1 X125.439 Y94.385 E.01432
G1 X125.844 Y94.511 E.01328
G1 X126.215 Y94.714 E.01328
G1 X126.541 Y94.986 E.01328
G1 X126.806 Y95.315 E.01328
G1 X127.003 Y95.69 E.01328
G1 X127.122 Y96.097 E.01328
G1 X127.16 Y96.489 E.01236
G1 X127.16 Y116.511 E.62777
G1 X127.115 Y116.94 E.01351
M73 P1 R53
M73 Q1 S53
G1 X126.989 Y117.344 E.01328
G1 X126.786 Y117.715 E.01328
G1 X126.514 Y118.041 E.01328
G1 X126.185 Y118.306 E.01328
G1 X125.81 Y118.503 E.01328
G1 X125.403 Y118.622 E.01328
G1 X124.982 Y118.66 E.01328
G1 X124.56 Y118.615 E.01328
G1 X124.156 Y118.489 E.01328
G1 X123.785 Y118.286 E.01328
G1 X123.459 Y118.014 E.01328
G1 X123.194 Y117.685 E.01328
G1 X122.997 Y117.31 E.01328
G1 X122.878 Y116.903 E.01328
G1 X122.84 Y116.511 E.01236
G1 X122.84 Y96.486 E.62785
G1 X122.885 Y96.06 E.01343
G1 X123.011 Y95.656 E.01328
G1 X123.214 Y95.285 E.01328
G1 X123.486 Y94.959 E.01328
G1 X123.815 Y94.694 E.01328
G1 X124.19 Y94.497 E.01328
G1 X124.539 Y94.395 E.0114
M204 S1000
G1 X124.725 Y94.01 F10800
;WIPE_START
G1 F8640
G1 X124.985 Y94.343 E-.10355
G1 X125.439 Y94.385 E-.10547
G1 X125.844 Y94.511 E-.09782
G1 X126.215 Y94.714 E-.09778
G1 X126.541 Y94.986 E-.09778
G1 X126.806 Y95.315 E-.09778
G1 X127.003 Y95.69 E-.09778
G1 X127.079 Y95.948 E-.06203
;WIPE_END
G1 E-.04 F2100
G1 Z.6 F720
G1 X141.6 Y90.168 F10800
G1 Z.2 F720
G1 E.8 F2100
M204 S800
;TYPE:Solid infill
;WIDTH:0.42284
G1 F1200
G1 X141.001 Y89.57 E.02674
G1 X140.464 Y89.57 E.01697
G1 X141.43 Y90.536 E.04317
G1 X141.43 Y91.073 E.01697
G1 X139.927 Y89.57 E.06717
G1 X139.389 Y89.57 E.01697
G1 X141.43 Y91.611 E.09117
G1 X141.43 Y92.148 E.01697
G1 X138.852 Y89.57 E.11518
G1 X138.315 Y89.57 E.01697
G1 X141.43 Y92.685 E.13918
G1 X141.43 Y93.223 E.01697
G1 X137.777 Y89.57 E.16318
G1 X137.24 Y89.57 E.01697
G1 X141.43 Y93.76 E.18719
G1 X141.43 Y94.297 E.01697
G1 X136.703 Y89.57 E.21119
G1 X136.166 Y89.57 E.01697
G1 X141.43 Y94.834 E.2352
G1 X141.43 Y95.372 E.01697
G1 X135.628 Y89.57 E.2592
G1 X135.091 Y89.57 E.01697
G1 X141.43 Y95.909 E.2832
G1 X141.43 Y96.446 E.01697
G1 X134.554 Y89.57 E.30721
G1 X134.016 Y89.57 E.01697
G1 X141.43 Y96.984 E.33121
G1 X141.43 Y97.521 E.01697
G1 X133.479 Y89.57 E.35521
G1 X132.942 Y89.57 E.01697
G1 X141.43 Y98.058 E.37922
G1 X141.43 Y98.595 E.01697
G1 X132.405 Y89.57 E.40322
G1 X131.867 Y89.57 E.01697
G1 X141.43 Y99.133 E.42723
G1 X141.43 Y99.67 E.01697
G1 X131.33 Y89.57 E.45123
G1 X130.793 Y89.57 E.01697
G1 X141.43 Y100.207 E.47523
G1 X141.43 Y100.745 E.01697
G1 X130.255 Y89.57 E.49924
G1 X129.718 Y89.57 E.01697
G1 X141.43 Y101.282 E.52324
G1 X141.43 Y101.819 E.01697
G1 X129.181 Y89.57 E.54724
G1 X128.644 Y89.57 E.01697
G1 X141.43 Y102.356 E.57125
G1 X141.43 Y102.894 E.01697
G1 X128.106 Y89.57 E.59525
G1 X127.569 Y89.57 E.01697
G1 X141.43 Y103.431 E.61926
G1 X141.43 Y103.968 E.01697
G1 X127.032 Y89.57 E.64326
G1 X126.494 Y89.57 E.01697
G1 X141.43 Y104.506 E.66726
G1 X141.43 Y105.043 E.01697
M73 P1 R52
G1 X125.957 Y89.57 E.69127
G1 X125.42 Y89.57 E.01697
G1 X141.43 Y105.58 E.71527
G1 X141.43 Y106.117 E.01697
G1 X124.883 Y89.57 E.73927
G1 X124.345 Y89.57 E.01697
G1 X141.43 Y106.655 E.76328
G1 X141.43 Y107.192 E.01697
G1 X123.808 Y89.57 E.78728
G1 X123.271 Y89.57 E.01697
G1 X141.43 Y107.729 E.81128
G1 X141.43 Y108.267 E.01697
M73 Q1 S52
G1 X122.733 Y89.57 E.83529
G1 X122.196 Y89.57 E.01697
G1 X141.43 Y108.804 E.85929
G1 X141.43 Y109.341 E.01697
G1 X127.638 Y95.549 E.61618
G1 X127.574 Y95.351 E.00655
G1 X127.3 Y94.871 E.01747
G1 X126.938 Y94.453 E.01746
G1 X126.502 Y94.115 E.01746
G1 X126.007 Y93.867 E.01746
G1 X125.937 Y93.848 E.00229
G1 X121.659 Y89.57 E.19115
G1 X121.122 Y89.57 E.01697
G1 X125.26 Y93.708 E.18487
G1 X124.893 Y93.685 E.0116
G1 X124.718 Y93.704 E.00556
G1 X120.584 Y89.57 E.18468
G1 X120.047 Y89.57 E.01697
G1 X124.269 Y93.792 E.18864
G1 X123.862 Y93.922 E.01351
G1 X119.51 Y89.57 E.19445
G1 X118.972 Y89.57 E.01697
G1 X123.518 Y94.116 E.20309
G1 X123.372 Y94.199 E.00531
M73 Q2 S52
G1 X123.203 Y94.338 E.00691
G1 X118.435 Y89.57 E.21301
G1 X117.898 Y89.57 E.01697
M73 P2 R52
G1 X122.931 Y94.604 E.22488
G1 X122.685 Y94.894 E.01204
G1 X117.361 Y89.57 E.23786
G1 X116.823 Y89.57 E.01697
G1 X122.494 Y95.24 E.25333
G1 X122.367 Y95.492 E.00891
G1 X122.333 Y95.617 E.00409
G1 X116.286 Y89.57 E.27017
G1 X115.749 Y89.57 E.01697
G1 X122.22 Y96.041 E.28912
G1 X122.18 Y96.539 E.01576
G1 X115.211 Y89.57 E.31133
G1 X114.674 Y89.57 E.01697
G1 X122.18 Y97.076 E.33534
G1 X122.18 Y97.613 E.01697
G1 X114.137 Y89.57 E.35934
G1 X113.6 Y89.57 E.01697
G1 X122.18 Y98.15 E.38334
G1 X122.18 Y98.688 E.01697
G1 X113.062 Y89.57 E.40735
G1 X112.525 Y89.57 E.01697
G1 X122.18 Y99.225 E.43135
G1 X122.18 Y99.762 E.01697
G1 X111.988 Y89.57 E.45536
G1 X111.45 Y89.57 E.01697
G1 X122.18 Y100.3 E.47936
G1 X122.18 Y100.837 E.01697
G1 X110.913 Y89.57 E.50336
G1 X110.376 Y89.57 E.01697
G1 X122.18 Y101.374 E.52737
G1 X122.18 Y101.912 E.01697
G1 X109.838 Y89.57 E.55137
G1 X109.301 Y89.57 E.01697
G1 X122.18 Y102.449 E.57537
G1 X122.18 Y102.986 E.01697
G1 X108.764 Y89.57 E.59938
G1 X108.57 Y89.57 E.00613
G1 X108.57 Y89.913 E.01084
G1 X122.18 Y103.523 E.60805
G1 X122.18 Y104.061 E.01697
G1 X108.57 Y90.45 E.60805
G1 X108.57 Y90.988 E.01697
G1 X122.18 Y104.598 E.60805
G1 X122.18 Y105.135 E.01697
G1 X108.57 Y91.525 E.60805
G1 X108.57 Y92.062 E.01697
G1 X122.18 Y105.673 E.60805
G1 X122.18 Y106.21 E.01697
G1 X108.57 Y92.6 E.60805
G1 X108.57 Y93.137 E.01697
G1 X122.18 Y106.747 E.60805
G1 X122.18 Y107.284 E.01697
G1 X108.57 Y93.674 E.60805
G1 X108.57 Y94.211 E.01697
G1 X122.18 Y107.822 E.60805
G1 X122.18 Y108.359 E.01697
G1 X108.57 Y94.749 E.60805
G1 X108.57 Y95.286 E.01697
G1 X122.18 Y108.896 E.60805
G1 X122.18 Y109.434 E.01697
G1 X108.57 Y95.823 E.60805
G1 X108.57 Y96.361 E.01697
G1 X122.18 Y109.971 E.60805
G1 X122.18 Y110.508 E.01697
G1 X108.57 Y96.898 E.60805
G1 X108.57 Y97.435 E.01697
G1 X122.18 Y111.045 E.60805
G1 X122.18 Y111.583 E.01697
G1 X108.57 Y97.972 E.60805
G1 X108.57 Y98.51 E.01697
G1 X122.18 Y112.12 E.60805
G1 X122.18 Y112.657 E.01697
G1 X108.57 Y99.047 E.60805
G1 X108.57 Y99.584 E.01697
G1 X122.18 Y113.195 E.60805
G1 X122.18 Y113.732 E.01697
G1 X108.57 Y100.122 E.60805
G1 X108.57 Y100.659 E.01697
M73 P3 R52
M73 Q3 S52
G1 X122.18 Y114.269 E.60805
G1 X122.18 Y114.806 E.01697
G1 X108.57 Y101.196 E.60805
G1 X108.57 Y101.733 E.01697
G1 X122.18 Y115.344 E.60805
G1 X122.18 Y115.881 E.01697
G1 X108.57 Y102.271 E.60805
G1 X108.57 Y102.808 E.01697
G1 X122.18 Y116.418 E.60805
G1 X122.238 Y117.014 E.0189
G1 X108.4 Y103.176 E.61823
M204 S1000
;WIPE_START
G1 F8640
G1 X110.728 Y105.503 E-.76
;WIPE_END
G1 E-.04 F2100
G1 Z.6 F720
G1 X127.607 Y96.056 F10800
G1 Z.2 F720
G1 E.8 F2100
M204 S800
G1 F1200
G1 X141.43 Y109.878 E.61754
G1 X141.43 Y110.416 E.01697
G1 X127.82 Y96.806 E.60805
G1 X127.82 Y97.343 E.01697
G1 X141.43 Y110.953 E.60805
G1 X141.43 Y111.49 E.01697
G1 X127.82 Y97.88 E.60805
G1 X127.82 Y98.417 E.01697
G1 X141.43 Y112.028 E.60805
G1 X141.43 Y112.565 E.01697
G1 X127.82 Y98.955 E.60805
G1 X127.82 Y99.492 E.01697
G1 X141.43 Y113.102 E.60805
G1 X141.43 Y113.639 E.01697
M73 P3 R51
G1 X127.82 Y100.029 E.60805
G1 X127.82 Y100.567 E.01697
G1 X141.43 Y114.177 E.60805
G1 X141.43 Y114.714 E.01697
G1 X127.82 Y101.104 E.60805
G1 X127.82 Y101.641 E.01697
G1 X141.43 Y115.251 E.60805
G1 X141.43 Y115.789 E.01697
G1 X127.82 Y102.178 E.60805
G1 X127.82 Y102.716 E.01697
G1 X141.43 Y116.326 E.60805
G1 X141.43 Y116.863 E.01697
G1 X127.82 Y103.253 E.60805
G1 X127.82 Y103.79 E.01697
G1 X141.43 Y117.4 E.60805
G1 X141.43 Y117.938 E.01697
M73 Q3 S51
G1 X127.82 Y104.328 E.60805
G1 X127.82 Y104.865 E.01697
G1 X141.43 Y118.475 E.60805
G1 X141.43 Y119.012 E.01697
G1 X127.82 Y105.402 E.60805
G1 X127.82 Y105.939 E.01697
G1 X141.43 Y119.55 E.60805
G1 X141.43 Y120.087 E.01697
G1 X127.82 Y106.477 E.60805
G1 X127.82 Y107.014 E.01697
G1 X141.236 Y120.43 E.59938
G1 X140.699 Y120.43 E.01697
G1 X127.82 Y107.551 E.57537
G1 X127.82 Y108.089 E.01697
G1 X140.161 Y120.43 E.55137
G1 X139.624 Y120.43 E.01697
G1 X127.82 Y108.626 E.52736
G1 X127.82 Y109.163 E.01697
G1 X139.087 Y120.43 E.50336
G1 X138.55 Y120.43 E.01697
G1 X127.82 Y109.7 E.47936
G1 X127.82 Y110.238 E.01697
G1 X138.012 Y120.43 E.45535
G1 X137.475 Y120.43 E.01697
M73 P4 R51
M73 Q4 S51
G1 X127.82 Y110.775 E.43135
G1 X127.82 Y111.312 E.01697
G1 X136.938 Y120.43 E.40735
G1 X136.4 Y120.43 E.01697
G1 X127.82 Y111.85 E.38334
G1 X127.82 Y112.387 E.01697
G1 X135.863 Y120.43 E.35934
G1 X135.326 Y120.43 E.01697
G1 X127.82 Y112.924 E.33533
G1 X127.82 Y113.461 E.01697
G1 X134.789 Y120.43 E.31133
G1 X134.251 Y120.43 E.01697
G1 X127.82 Y113.999 E.28733
G1 X127.82 Y114.536 E.01697
G1 X133.714 Y120.43 E.26332
G1 X133.177 Y120.43 E.01697
G1 X127.82 Y115.073 E.23932
G1 X127.82 Y115.611 E.01697
G1 X132.639 Y120.43 E.21532
G1 X132.102 Y120.43 E.01697
G1 X127.82 Y116.148 E.19131
G1 X127.806 Y116.671 E.01653
G1 X131.565 Y120.43 E.16794
G1 X131.028 Y120.43 E.01697
G1 X127.734 Y117.137 E.14714
G1 X127.611 Y117.551 E.01365
G1 X130.49 Y120.43 E.12864
G1 X129.953 Y120.43 E.01697
G1 X127.432 Y117.909 E.11263
G1 X127.298 Y118.132 E.0082
G1 X127.214 Y118.229 E.00405
G1 X129.416 Y120.43 E.09836
G1 X128.878 Y120.43 E.01697
G1 X126.965 Y118.516 E.0855
G1 X126.668 Y118.757 E.01207
G1 X128.341 Y120.43 E.07476
G1 X127.804 Y120.43 E.01697
G1 X126.34 Y118.966 E.0654
G1 X125.978 Y119.141 E.01271
G1 X127.267 Y120.43 E.05759
G1 X126.729 Y120.43 E.01697
G1 X125.561 Y119.262 E.05218
G1 X125.076 Y119.314 E.01542
G1 X126.192 Y120.43 E.04986
G1 X125.655 Y120.43 E.01697
G1 X124.252 Y119.028 E.06265
M204 S1000
;WIPE_START
G1 F8640
G1 X125.655 Y120.43 E-.45792
G1 X126.192 Y120.43 E-.12406
G1 X125.647 Y119.885 E-.17802
;WIPE_END
G1 E-.04 F2100
G1 Z.6 F720
G1 X125.287 Y120.6 F10800
G1 Z.2 F720
G1 E.8 F2100
M204 S800
G1 F1200
G1 X108.57 Y103.883 E.74685
G1 X108.57 Y104.42 E.01697
G1 X124.58 Y120.43 E.71527
G1 X124.043 Y120.43 E.01697
G1 X108.57 Y104.957 E.69126
G1 X108.57 Y105.494 E.01697
G1 X123.506 Y120.43 E.66726
G1 X122.968 Y120.43 E.01697
G1 X108.57 Y106.032 E.64326
G1 X108.57 Y106.569 E.01697
G1 X122.431 Y120.43 E.61925
G1 X121.894 Y120.43 E.01697
G1 X108.57 Y107.106 E.59525
G1 X108.57 Y107.644 E.01697
G1 X121.356 Y120.43 E.57125
G1 X120.819 Y120.43 E.01697
G1 X108.57 Y108.181 E.54724
G1 X108.57 Y108.718 E.01697
G1 X120.282 Y120.43 E.52324
G1 X119.745 Y120.43 E.01697
G1 X108.57 Y109.255 E.49923
G1 X108.57 Y109.793 E.01697
G1 X119.207 Y120.43 E.47523
G1 X118.67 Y120.43 E.01697
G1 X108.57 Y110.33 E.45123
G1 X108.57 Y110.867 E.01697
G1 X118.133 Y120.43 E.42722
G1 X117.595 Y120.43 E.01697
G1 X108.57 Y111.405 E.40322
G1 X108.57 Y111.942 E.01697
G1 X117.058 Y120.43 E.37922
G1 X116.521 Y120.43 E.01697
G1 X108.57 Y112.479 E.35521
G1 X108.57 Y113.017 E.01697
G1 X115.983 Y120.43 E.33121
G1 X115.446 Y120.43 E.01697
G1 X108.57 Y113.554 E.3072
G1 X108.57 Y114.091 E.01697
G1 X114.909 Y120.43 E.2832
G1 X114.372 Y120.43 E.01697
G1 X108.57 Y114.628 E.2592
G1 X108.57 Y115.166 E.01697
G1 X113.834 Y120.43 E.23519
G1 X113.297 Y120.43 E.01697
G1 X108.57 Y115.703 E.21119
G1 X108.57 Y116.24 E.01697
G1 X112.76 Y120.43 E.18719
G1 X112.222 Y120.43 E.01697
G1 X108.57 Y116.778 E.16318
G1 X108.57 Y117.315 E.01697
G1 X111.685 Y120.43 E.13918
G1 X111.148 Y120.43 E.01697
G1 X108.57 Y117.852 E.11518
G1 X108.57 Y118.389 E.01697
G1 X110.611 Y120.43 E.09117
G1 X110.073 Y120.43 E.01697
G1 X108.57 Y118.927 E.06717
G1 X108.57 Y119.464 E.01697
G1 X109.536 Y120.43 E.04316
G1 X108.999 Y120.43 E.01697
G1 X108.4 Y119.832 E.02674
M204 S1000
; stop printing object BFD1000 pad v1.stl id:0 copy 0
M106 S84.15
;LAYER_CHANGE
;Z:0.35
;HEIGHT:0.15
;BEFORE_LAYER_CHANGE
G92 E0.0
;0.35


;WIPE_START
G1 F8640
G1 X108.999 Y120.43 E-.19546
G1 X109.536 Y120.43 E-.12406
G1 X108.57 Y119.464 E-.3155
G1 X108.57 Y118.927 E-.12406
G1 X108.573 Y118.93 E-.00092
;WIPE_END
G1 E-.04 F2100
G1 Z.6 F720
;AFTER_LAYER_CHANGE
;0.35
M104 S213 ; set temperature
M140 S65 ; set bed temperature
G1 X105.123 Y118.93 F10800
G1 Z.35 F720
G1 E.8 F2100
;TYPE:Skirt/Brim
;WIDTH:0.42
G1 F3000
G1 X105.123 Y88.5 E.73593
